X:1
T:Tant Que Vivray
T:Tant Que Vivray
T:Miguel de Fuenllana
C:Miguel de Fuenllana
L:1/8
M:4/4
K:C
V:1 tab stafflines=6 strings=G2,C3,F3,A3,D4,G4 nostems nm="Lute" snm="Lt."
V:1
 [!4!F,!3!A,!2!F!1!c]8 | [!4!F,!3!A,!2!F!1!c]4 [!4!G,!3!_B,!2!D!1!_B]2 !2!E2 | %2
 [!4!F,!3!C!2!F!1!A]4 !3!C4 | [!4!F,!3!C!2!F!1!A]2 !1!_B2 !1!A2 !1!G !2!F | %4
 [!3!C!2!E!1!G]4 [!4!A,!3!C!2!F!1!c]4 | [!4!G,!3!D!2!G]2 !1!B !1!A !1!c2 !1!B2 | %6
 [!5!C,!3!C!2!E!1!c]4 !3!C4 | [!4!F,!3!C!2!F!1!A]4 !3!A,2 !3!C2 | %8
 [!4!G,!3!_B,!2!D!1!G]2 !1!A2 !1!G4 | [!5!D,!3!A,!2!D!1!A]8 | %10
 [!5!D,!3!A,!2!D!1!A]2 !2!E2 !2!F2 [!5!C,!2!E]2 | [!6!_B,,!4!F,!2!D!1!_B]6 [!3!C!1!A]2 | %12
 [!6!_B,,!3!_B,!2!D!1!G]4 !2!F2 !3!A,2 | [!5!C,!4!G,!3!C]4 !2!E2 !2!D2 | %14
 [!5!C,!4!G,!3!C!2!E]2 !2!F2 !1!G2 !2!E2 | [!4!F,!3!A,!2!F]8 | %16
 [!5!D,!4!F,!3!A,!2!F]4 [!4!G,!3!_B,!2!D!1!G]4 | %17
 [!4!F,!3!C!2!F!1!A]2 [!3!_B,!1!G]2 [!3!A,!2!F]2 [!4!G,!2!E]2 | %18
 [!4!F,!3!A,!2!F]4 [!6!_B,,!3!_B,!2!D!1!G]4 | !3!_B,2 [!3!A,!2!F]2 [!5!D,!4!F,!3!A,!2!F]2 !3!=B,2 | %20
 [!5!C,!4!G,!3!C!2!F]2 !2!E !2!D !2!F2 !2!E2 | [!4!F,!3!C!2!F]6 !3!_B,2 | %22
 [!4!F,!3!A,!2!F]4 !3!A,4 | [!5!D,!4!F,!3!A,!2!F]4 [!4!G,!3!_B,!2!D!1!G]4 | %24
 [!4!F,!3!C!2!F!1!A]2 [!3!_B,!1!G]2 [!3!A,!2!F]2 [!4!G,!2!E]2 | %25
 [!4!F,!3!A,!2!F]4 [!6!_B,,!3!_B,!2!D!1!G]4 | !2!D2 !2!E2 [!5!D,!4!F,!3!A,!2!F]2 !2!D2 | %27
 [!5!C,!4!G,!3!C!2!E]2 !2!F2 [!5!C,!4!G,]2 !2!E2 | !fermata![!4!F,!3!C!2!F]8 | %29
 [!4!_B,!3!D!2!F]4 [!4!B,!3!D!2!F]2 [!4!B,!3!D!2!G]2 | [!4!A,!2!E!1!A]4 [!4!F,!2!F]4 | %31
 [!4!_B,!3!D!2!F]4 [!4!B,!3!D!2!F]2 [!4!B,!2!G]2 | [!4!A,!2!E!1!A]4 [!4!F,!2!F]4 | %33
 [!4!F,!3!A,!2!F!1!c]3 !1!_B !1!c2 [!4!G,!3!_B,!2!D!1!B]2 | [!4!F,!3!C!2!F!1!A]4 !2!F4 | %35
 [!4!F,!3!A,!2!F!1!c]3 !1!_B !1!c2 [!4!G,!3!_B,!2!D!1!B]2 | %36
 [!4!F,!3!C!2!F!1!A]4 [!5!C,!2!E!1!G]2 !3!_B,2 | %37
 [!5!D,!4!F,!3!A,]2 !2!F2 [!6!_B,,!4!_B,!3!D!2!F]4 | [!5!C,!4!G,!3!C]2 !2!F2 !2!E4 | %39
 [!4!F,!3!C!2!F]4 !3!C4 | [!4!F,!3!A,!2!F!1!c]3 !1!_B !1!c2 [!4!G,!3!_B,!2!D!1!B]2 | %41
 [!4!F,!3!C!2!F!1!A]4 [!5!C,!2!E!1!G]2 !3!_B,2 | %42
 [!5!D,!4!F,!3!A,]2 !2!F2 [!6!_B,,!4!_B,!3!D!2!F]4 | [!5!C,!4!G,!3!C!2!F]2 !2!E !2!D !2!F2 !2!E2 | %44
 !fermata![!4!F,!3!C!2!F]8 |] %45

